X: 41997
T: Walo's First Row
R: reel
M: 4/4
K: Aminor
|:"Am"eAAc BcAe|AAcA BGGc|"G/A"eAAc BcAd|dcde ddcd|
"F/A"eAAc BcAa|AAcA BcAe-|"E/A"eAAc BcAd|dcde d3^d|
"F/A (D)"eaag edAB|cccB cBAG|"G/A (Em)"cccB cdec|dcde ddcd|
"F/A (F)"eAAc BcAB|cccB cBAB|"G/A (Em)"cccB cded-|dcde d3c:|
"Am (accelerando)"eAAc BcAe|AAcA BcAc|eAAc BcAd|dcde BcAc|
eAAc BcAe|AAcA BcAc|eAAc BcAG|ABcA B3 c||

